icon/ir/log-in.svg

<svg stroke-width="1.5" viewBox="0 0 24 24" fill="none" xmlns="http://www.w3.org/2000/svg" height="1em" width="1em">
  <path d="M19 12H12M12 12L15 15M12 12L15 9" stroke="currentColor" stroke-linecap="round" stroke-linejoin="round"/>
  <path d="M19 6V5C19 3.89543 18.1046 3 17 3H7C5.89543 3 5 3.89543 5 5V19C5 20.1046 5.89543 21 7 21H17C18.1046 21 19 20.1046 19 19V18" stroke="currentColor" stroke-linecap="round" stroke-linejoin="round"/>
</svg>

<svg width="24" height="24" stroke-width="1.5" fill="none" xmlns="http://www.w3.org/2000/svg"><path d="M19 12h-7m0 0 3 3m-3-3 3-3M19 6V5a2 2 0 0 0-2-2H7a2 2 0 0 0-2 2v14a2 2 0 0 0 2 2h10a2 2 0 0 0 2-2v-1" stroke="currentColor" stroke-linecap="round" stroke-linejoin="round"/></svg>
